; generated by PrusaSlicer 2.6.1+win64 on 2024-03-13 at 13:39:45 UTC


;
;
; 

; external perimeters extrusion width = 0.60mm
; perimeters extrusion width = 0.50mm
; infill extrusion width = 0.50mm
; solid infill extrusion width = 0.50mm
; top infill extrusion width = 0.45mm
; first layer extrusion width = 0.42mm

; external perimeters extrusion width = 0.60mm
; perimeters extrusion width = 0.50mm
; infill extrusion width = 0.50mm
; solid infill extrusion width = 0.50mm
; top infill extrusion width = 0.45mm
; first layer extrusion width = 0.42mm

M73 P0 R34
M73 C19
M73 Q0 S35
M73 D19
M201 X1000 Y1000 Z200 E5000 ; sets maximum accelerations, mm/sec^2
M203 X200 Y200 Z12 E120 ; sets maximum feedrates, mm / sec
M204 S1250 T1250 ; sets acceleration (S) and retract acceleration (R), mm/sec^2
M205 X8.00 Y8.00 Z0.40 E4.50 ; sets the jerk limits, mm/sec
M205 S0 T0 ; sets the minimum extruding and travel feed rate, mm/sec
;TYPE:Custom
M862.3 P "MK3" ; printer model check
M862.1 P0.4 ; nozzle diameter check
M115 U3.13.1 ; tell printer latest fw version
G90 ; use absolute coordinates
M83 ; extruder relative mode
M104 S215 ; set extruder temp
M140 S60 ; set bed temp
M190 S60 ; wait for bed temp
M109 S215 ; wait for extruder temp
G28 W ; home all without mesh bed level
G80 ; mesh bed leveling

G1 Z0.2 F720
G1 Y-3 F1000 ; go outside print area
G92 E0
G1 X60 E9 F1000 ; intro line
G1 X100 E12.5 F1000 ; intro line

G92 E0
M221 S95

; Don't change E values below. Excessive value can damage the printer.

M907 E538 ; set extruder motor current
G21 ; set units to millimeters
G90 ; use absolute coordinates
M83 ; use relative distances for extrusion
M900 K0.05 ; Filament gcode LA 1.5
M900 K30 ; Filament gcode LA 1.0

M107
;LAYER_CHANGE
;Z:0.2
;HEIGHT:0.2
;BEFORE_LAYER_CHANGE
G92 E0.0
;0.2


G1 E-.8 F2100
G1 Z.4 F720
;AFTER_LAYER_CHANGE
;0.2
G1 X35.398 Y92.229 F10800
G1 Z.2 F720
M73 Q0 S34
G1 E.8 F2100
M204 S800
;TYPE:Skirt/Brim
;WIDTH:0.42
G1 F1200
G1 X36.284 Y92.036 E.02843
G1 X37.215 Y92.015 E.0292
G1 X113.144 Y92.014 E2.3807
G1 X122.284 Y92.035 E.28658
G1 X123.59 Y92.43 E.04278
G1 X124.464 Y93.477 E.04276
G1 X124.655 Y94.411 E.02989
G1 X124.686 Y189.695 E2.98756
G1 X124.655 Y191.882 E.06858
G1 X124.245 Y193.183 E.04277
G1 X123.187 Y194.045 E.04279
G1 X122.278 Y194.225 E.02905
G1 X36.338 Y194.225 E2.69459
G1 X35.031 Y193.834 E.04277
M73 P1 R34
M73 Q1 S34
G1 X34.155 Y192.788 E.04278
G1 X33.961 Y191.848 E.03009
G1 X33.961 Y94.412 E3.05504
G1 X34.353 Y93.105 E.04278
G1 X35.352 Y92.267 E.04088
M204 S1000
; printing object Fantastic Turing-Hillar (2).stl_1 id:0 copy 0
;WIPE_START
G1 F8640
G1 X36.284 Y92.036 E-.22171
G1 X37.215 Y92.015 E-.21503
G1 X38.788 Y92.015 E-.36326
;WIPE_END
G1 Z.6 F720
G1 X79.454 Y163.184 F10800
G1 Z.2 F720
G1 E.8 F2100
M204 S800
;TYPE:External perimeter
;WIDTH:0.533054
G1 F1200
G1 X79.411 Y163.171 E.00183
G1 X67.944 Y163.155 E.46734
;WIDTH:0.50158
G1 X56.477 Y163.139 E.43733
;WIDTH:0.470106
G1 X56.476 Y163.139 E.00004
M204 S1000
;WIPE_START
G1 F8640
G1 X56.477 Y163.139 E-.00023
G1 X59.941 Y163.144 E-.79977
;WIPE_END
G1 Z.6 F720
G1 X103.815 Y162.82 F10800
G1 Z.2 F720
G1 E.8 F2100
M204 S800
;WIDTH:0.363267
G1 F1200
G1 X81.523 Y141.866 E.81494
;WIDTH:0.362176
G1 X80.109 Y140.562 E.05106
;WIDTH:0.395392
G1 X79.834 Y140.313 E.01087
G1 X79.683 Y140.338 E.00449
;WIDTH:0.349654
G1 X79.424 Y140.597 E.00934
;WIDTH:0.342573
G1 X77.256 Y142.652 E.07443
;WIDTH:0.338579
G1 X60.869 Y158.421 E.55909
;WIDTH:0.331928
G1 X60.868 Y158.422 E.00003
;WIDTH:0.358248
G1 X56.367 Y162.813 E.16487
;WIDTH:0.395036
G1 X56.325 Y162.878 E.00227
;WIDTH:0.431824
G1 X56.283 Y162.944 E.00253
;WIDTH:0.470104
G1 X56.476 Y163.139 E.00975
G1 X55.609 Y163.156 E.0308
;WIDTH:0.431824
G1 X55.878 Y162.871 E.01267
;WIDTH:0.395036
G1 X56.147 Y162.587 E.01145
;WIDTH:0.358248
G1 X60.667 Y158.215 E.16488
;WIDTH:0.331928
G1 X60.669 Y158.213 E.00007
;WIDTH:0.338579
G1 X77.051 Y142.439 E.55909
;WIDTH:0.342573
G1 X79.214 Y140.387 E.07429
;WIDTH:0.339503
G1 X79.396 Y140.205 E.00635
;WIDTH:0.363639
G1 X79.611 Y140.049 E.00708
;WIDTH:0.402627
G1 X79.825 Y139.893 E.00792
G1 X80.325 Y140.328 E.01982
;WIDTH:0.362176
G1 X81.738 Y141.63 E.05101
;WIDTH:0.363267
G1 X104.013 Y162.609 E.81506
;WIDTH:0.332452
G1 X104.013 Y162.609 E0
;WIDTH:0.366359
G1 X104.165 Y162.776 E.00607
;WIDTH:0.400265
G1 X104.316 Y162.943 E.00669
;WIDTH:0.434171
G1 X104.467 Y163.109 E.0073
G1 X104.541 Y163.215 E.00421
G1 X104.094 Y163.22 E.01454
G1 X103.968 Y163.244 E.00417
;WIDTH:0.385434
G1 X103.842 Y163.269 E.00366
;WIDTH:0.336696
G1 X103.716 Y163.293 E.00313
;WIDTH:0.287958
G1 X80.034 Y163.293 E.48252
;WIDTH:0.328294
G1 X79.994 Y163.299 E.00096
;WIDTH:0.368629
G1 X79.953 Y163.304 E.00112
;WIDTH:0.408964
G1 X79.913 Y163.31 E.00123
;WIDTH:0.449299
G1 X79.872 Y163.315 E.0014
;WIDTH:0.489634
G1 X79.832 Y163.321 E.0015
G1 X79.847 Y163.353 E.00131
;WIDTH:0.444744
G1 X79.863 Y163.384 E.00117
;WIDTH:0.399853
G1 X79.878 Y163.416 E.00105
;WIDTH:0.354962
G1 X79.878 Y189.158 E.66791
G1 X79.826 Y189.378 E.00587
G1 X79.618 Y189.378 E.0054
G1 X79.566 Y189.178 E.00536
G1 X79.566 Y163.416 E.66843
;WIDTH:0.399852
G1 X79.581 Y163.384 E.00105
;WIDTH:0.444743
G1 X79.597 Y163.353 E.00117
;WIDTH:0.489634
G1 X79.612 Y163.321 E.00131
;WIDTH:0.513662
G1 X79.454 Y163.184 E.00819
G1 X79.722 Y163.149 E.01058
;WIDTH:0.489634
G1 X79.75 Y163.131 E.00124
;WIDTH:0.446313
G1 X79.778 Y163.113 E.00112
;WIDTH:0.402992
G1 X79.806 Y163.095 E.001
;WIDTH:0.359671
G1 X79.834 Y163.077 E.00088
;WIDTH:0.31635
G1 X80.034 Y163.048 E.00459
;WIDTH:0.287958
G1 X103.716 Y163.048 E.48252
;WIDTH:0.336696
G1 X103.779 Y163.024 E.00165
;WIDTH:0.385434
G1 X103.842 Y162.999 E.00193
;WIDTH:0.434171
G1 X103.905 Y162.975 E.00219
G1 X103.875 Y162.923 E.00195
;WIDTH:0.400265
G1 X103.845 Y162.872 E.00176
M204 S1000
;WIPE_START
G1 F8640
G1 X101.322 Y160.498 E-.8
;WIPE_END
G1 Z.6 F720
G1 X113.742 Y94.687 F10800
G1 Z.2 F720
M73 Q2 S34
G1 E.8 F2100
M204 S800
;WIDTH:0.53771
M73 P2 R34
G1 F1200
G1 X114.518 Y94.668 E.03194
G1 X118.091 Y94.679 E.147
;WIDTH:0.504091
G1 X121.664 Y94.69 E.13701
;WIDTH:0.510652
G1 X121.729 Y94.71 E.00264
;WIDTH:0.550831
G1 X121.795 Y94.731 E.00293
;WIDTH:0.591011
G1 X121.861 Y94.752 E.00316
;WIDTH:0.63119
G1 X121.927 Y94.772 E.00337
G1 X121.943 Y94.904 E.0065
;WIDTH:0.647492
G1 X121.966 Y162.925 E3.41944
;WIDTH:0.697228
G1 X121.941 Y163.048 E.00683
;WIDTH:0.746964
G1 X121.917 Y163.171 E.00734
G1 X121.866 Y163.171 E.00299
;WIDTH:0.704177
G1 X121.816 Y163.171 E.00275
;WIDTH:0.66139
G1 X121.765 Y163.171 E.00262
;WIDTH:0.618603
G1 X121.714 Y163.171 E.00244
;WIDTH:0.575816
G1 X121.664 Y163.171 E.00222
;WIDTH:0.533028
G1 X115.863 Y163.166 E.23641
;WIDTH:0.524004
G1 X114.677 Y163.152 E.04745
;WIDTH:0.49527
G1 X114.431 Y163.14 E.00926
M204 S1000
;WIPE_START
G1 F8640
G1 X114.677 Y163.152 E-.05687
G1 X115.863 Y163.166 E-.27387
G1 X117.895 Y163.168 E-.46926
;WIPE_END
G1 Z.6 F720
G1 X121.969 Y171.331 F10800
G1 Z.2 F720
G1 E.8 F2100
M204 S800
;WIDTH:0.653322
G1 F1200
G1 X121.966 Y163.416 E.40173
;WIDTH:0.697398
G1 X121.942 Y163.293 E.00682
;WIDTH:0.746964
M73 P2 R33
G1 X121.917 Y163.171 E.00729
M204 S1000
;WIPE_START
G1 F8640
G1 X121.942 Y163.293 E-.02876
G1 X121.966 Y163.416 E-.02894
G1 X121.967 Y166.631 E-.7423
;WIPE_END
G1 Z.6 F720
G1 X121.947 Y171.388 F10800
G1 Z.2 F720
G1 E.8 F2100
M204 S800
;WIDTH:0.653322
G1 F1200
G1 X121.969 Y171.331 E.0031
G1 X121.991 Y171.388 E.0031
;WIDTH:0.609742
G1 X122.013 Y171.445 E.00288
;WIDTH:0.566162
G1 X122.035 Y171.502 E.00266
;WIDTH:0.522581
G1 X122.056 Y171.559 E.00242
;WIDTH:0.479001
G1 X122.078 Y171.616 E.00222
;WIDTH:0.43542
G1 X122.1 Y171.673 E.00199
;WIDTH:0.39184
G1 X122.122 Y171.731 E.0018
;WIDTH:0.354304
G1 X122.131 Y189.158 E.45121
G1 X122.079 Y189.379 E.00588
G1 X121.872 Y189.379 E.00536
G1 X121.82 Y189.158 E.00588
G1 X121.817 Y171.731 E.45121
;WIDTH:0.39184
G1 X121.838 Y171.674 E.00176
;WIDTH:0.43542
G1 X121.86 Y171.616 E.00202
;WIDTH:0.479001
G1 X121.882 Y171.559 E.00222
;WIDTH:0.522581
G1 X121.904 Y171.502 E.00244
;WIDTH:0.566162
G1 X121.926 Y171.445 E.00266
;WIDTH:0.609742
G1 X121.926 Y171.444 E.00005
M204 S1000
;WIPE_START
G1 F8640
G1 X121.969 Y171.331 E-.02792
G1 X121.991 Y171.388 E-.01411
G1 X122.013 Y171.445 E-.01411
G1 X122.035 Y171.502 E-.01411
G1 X122.056 Y171.559 E-.01403
G1 X122.078 Y171.616 E-.01411
G1 X122.1 Y171.673 E-.01411
G1 X122.122 Y171.731 E-.01432
G1 X122.124 Y174.646 E-.67318
;WIPE_END
G1 Z.6 F720
G1 X84.477 Y134.836 F10800
G1 Z.2 F720
G1 E.8 F2100
M204 S800
;WIDTH:0.354866
G1 F1200
G1 X84.511 Y134.897 E.00181
;WIDTH:0.325905
G1 X84.544 Y134.958 E.00163
;WIDTH:0.322038
G1 X84.86 Y135.213 E.00942
;WIDTH:0.329273
G1 X85.449 Y135.774 E.01937
;WIDTH:0.363313
G1 X114.152 Y162.865 E1.05148
;WIDTH:0.397747
G1 X114.234 Y162.966 E.00384
;WIDTH:0.43218
G1 X114.316 Y163.067 E.00421
;WIDTH:0.47389
G1 X114.431 Y163.14 E.00488
G1 X114.255 Y163.149 E.00632
;WIDTH:0.424059
G1 X114.08 Y163.158 E.00555
;WIDTH:0.374228
G1 X113.932 Y163.097 E.00441
;WIDTH:0.363313
G1 X85.253 Y135.982 E1.05145
;WIDTH:0.329273
G1 X84.667 Y135.415 E.01942
;WIDTH:0.354866
M73 C18
G1 X84.147 Y134.884 E.01928
G1 X84.188 Y134.706 E.00474
;WIDTH:0.342924
G1 X84.279 Y134.5 E.00562
;WIDTH:0.353184
G1 X84.577 Y134.033 E.01429
;WIDTH:0.369324
G1 X111.158 Y97.74 E1.22094
;WIDTH:0.394834
G1 X113.243 Y94.831 E.10473
;WIDTH:0.440525
M73 D18
G1 X113.279 Y94.805 E.00147
;WIDTH:0.486215
G1 X113.315 Y94.779 E.00164
;WIDTH:0.505104
G1 X113.353 Y94.659 E.00484
;WIDTH:0.537442
G1 X113.742 Y94.687 E.01604
G1 X113.637 Y94.771 E.00553
;WIDTH:0.533874
G1 X113.6 Y94.86 E.00393
;WIDTH:0.487528
G1 X113.564 Y94.949 E.00355
;WIDTH:0.441181
G1 X113.528 Y95.037 E.00315
;WIDTH:0.394834
G1 X111.421 Y97.933 E.1048
;WIDTH:0.369324
G1 X84.828 Y134.216 E1.22092
;WIDTH:0.353184
G1 X84.517 Y134.659 E.01396
;WIDTH:0.354866
G1 X84.49 Y134.778 E.00317
M204 S1000
;WIPE_START
G1 F8640
G1 X84.511 Y134.897 E-.0279
G1 X84.544 Y134.958 E-.01601
G1 X84.86 Y135.213 E-.09376
G1 X85.449 Y135.774 E-.18782
G1 X86.943 Y137.185 E-.47451
;WIPE_END
G1 Z.6 F720
G1 X84.672 Y115.575 F10800
G1 Z.2 F720
G1 E.8 F2100
M204 S800
;WIDTH:0.680018
G1 F1200
G1 X84.606 Y115.61 E.00396
G1 X84.583 Y115.578 E.00209
;WIDTH:0.64417
G1 X84.56 Y115.547 E.00193
;WIDTH:0.608321
G1 X84.537 Y115.515 E.00185
;WIDTH:0.572472
G1 X84.509 Y115.41 E.00478
;WIDTH:0.524734
G1 X84.482 Y115.305 E.00434
;WIDTH:0.498022
G1 X84.471 Y114.694 E.02313
;WIDTH:0.531948
G1 X84.455 Y108.828 E.23853
;WIDTH:0.53296
G1 X84.454 Y94.904 E.56736
;WIDTH:0.5753
G1 X84.475 Y94.802 E.00461
;WIDTH:0.61764
G1 X84.496 Y94.7 E.00498
G1 X84.598 Y94.679 E.00498
;WIDTH:0.575799
G1 X84.699 Y94.658 E.00457
;WIDTH:0.533958
G1 X98.04 Y94.659 E.54471
;WIDTH:0.532994
G1 X103.74 Y94.675 E.23227
;WIDTH:0.50003
G1 X104.298 Y94.687 E.02121
;WIDTH:0.522236
G1 X104.37 Y94.714 E.00306
;WIDTH:0.567525
G1 X104.442 Y94.741 E.00335
;WIDTH:0.612815
G1 X104.514 Y94.769 E.00366
;WIDTH:0.658104
G1 X104.586 Y94.796 E.00393
G1 X104.556 Y94.861 E.00366
;WIDTH:0.616197
G1 X104.525 Y94.926 E.00343
;WIDTH:0.574289
G1 X104.494 Y94.99 E.00314
;WIDTH:0.532382
G1 X104.463 Y95.055 E.00293
;WIDTH:0.538476
G1 X103.037 Y96.574 E.08585
;WIDTH:0.57254
G1 X100.941 Y98.78 E.13401
;WIDTH:0.610366
G1 X94.684 Y105.321 E.42709
G1 X88.388 Y111.858 E.42823
;WIDTH:0.586592
M73 Q3 S34
G1 X86.809 Y113.481 E.10236
;WIDTH:0.558831
M73 P3 R33
G1 X85.231 Y115.104 E.09711
;WIDTH:0.53107
G1 X84.869 Y115.469 E.02087
;WIDTH:0.556117
G1 X84.803 Y115.504 E.00319
;WIDTH:0.597417
G1 X84.738 Y115.54 E.00343
;WIDTH:0.638718
G1 X84.725 Y115.546 E.00071
M204 S1000
;WIPE_START
G1 F8640
G1 X84.606 Y115.61 E-.0312
G1 X84.583 Y115.578 E-.0091
G1 X84.56 Y115.547 E-.00891
G1 X84.537 Y115.515 E-.0091
G1 X84.509 Y115.41 E-.02509
G1 X84.482 Y115.305 E-.02503
G1 X84.471 Y114.694 E-.1411
G1 X84.464 Y112.31 E-.55047
;WIPE_END
G1 Z.6 F720
G1 X75.299 Y115.841 F10800
G1 Z.2 F720
G1 E.8 F2100
M204 S800
;WIDTH:0.471004
G1 F1200
G1 X75.001 Y115.697 E.01178
;WIDTH:0.424012
G1 X74.87 Y115.586 E.00544
;WIDTH:0.387765
G1 X74.739 Y115.475 E.00492
;WIDTH:0.351518
G1 X59.519 Y99.099 E.57367
;WIDTH:0.322872
G1 X58.097 Y97.553 E.0489
;WIDTH:0.31263
G1 X56.19 Y95.444 E.06377
;WIDTH:0.282761
G1 X55.975 Y95.194 E.00658
;WIDTH:0.317313
G1 X55.871 Y95.003 E.00496
;WIDTH:0.359771
G1 X55.768 Y94.812 E.00572
;WIDTH:0.402229
G1 X55.665 Y94.621 E.00648
G1 X55.976 Y94.584 E.00936
;WIDTH:0.361897
G1 X56.24 Y94.552 E.00705
;WIDTH:0.321564
G1 X72.967 Y94.541 E.38755
;WIDTH:0.305066
G1 X75.112 Y94.544 E.04676
;WIDTH:0.348108
M73 Q3 S33
G1 X75.347 Y94.571 E.006
;WIDTH:0.39115
G1 X75.583 Y94.599 E.00688
G1 X75.588 Y94.76 E.00466
G1 X75.603 Y94.938 E.00517
;WIDTH:0.371335
G1 X75.549 Y115.16 E.55222
;WIDTH:0.358779
G1 X75.535 Y115.276 E.00307
;WIDTH:0.396188
G1 X75.491 Y115.463 E.00564
;WIDTH:0.433596
G1 X75.447 Y115.649 E.00621
;WIDTH:0.471004
G1 X75.403 Y115.836 E.00684
G1 X75.359 Y115.838 E.00157
M204 S1000
G1 X75.132 Y115.555 F10800
G1 X75.089 Y115.328
M204 S800
;WIDTH:0.431176
G1 F1200
G1 X75.027 Y115.296 E.00225
;WIDTH:0.391347
G1 X74.965 Y115.264 E.00202
;WIDTH:0.351518
G1 X59.724 Y98.909 E.57365
;WIDTH:0.322872
G1 X58.296 Y97.371 E.04885
;WIDTH:0.31263
G1 X56.367 Y95.282 E.06377
;WIDTH:0.282761
G1 X56.152 Y95.045 E.00638
;WIDTH:0.31185
G1 X56.131 Y94.992 E.00127
;WIDTH:0.348845
G1 X56.111 Y94.939 E.00144
;WIDTH:0.38584
G1 X56.091 Y94.886 E.00162
G1 X56.165 Y94.858 E.00226
;WIDTH:0.353702
G1 X56.24 Y94.83 E.00207
;WIDTH:0.321564
G1 X72.968 Y94.797 E.38758
;WIDTH:0.305066
G1 X75.112 Y94.806 E.04673
;WIDTH:0.348108
G1 X75.187 Y94.829 E.00199
;WIDTH:0.39115
G1 X75.263 Y94.851 E.00229
G1 X75.275 Y94.937 E.00251
;WIDTH:0.371335
G1 X75.235 Y115.159 E.55222
;WIDTH:0.394964
G1 X75.207 Y115.226 E.00213
;WIDTH:0.432984
G1 X75.179 Y115.293 E.00236
;WIDTH:0.471004
G1 X75.142 Y115.356 E.0026
M204 S1000
;WIPE_START
G1 F8640
G1 X75.027 Y115.296 E-.02995
G1 X74.965 Y115.264 E-.01611
G1 X72.739 Y112.875 E-.75394
;WIPE_END
G1 Z.6 F720
G1 X37.556 Y189.336 F10800
G1 Z.2 F720
G1 E.8 F2100
M204 S800
;WIDTH:0.39638
G1 F1200
G1 X37.554 Y188.217 E.03289
;WIDTH:0.424606
G1 X37.557 Y187.332 E.02809
;WIDTH:0.452832
G1 X37.561 Y186.448 E.03013
;WIDTH:0.48658
G1 X37.546 Y183.716 E.10079
;WIDTH:0.506684
G1 X37.548 Y163.415 E.78285
;WIDTH:0.549868
G1 X37.57 Y163.334 E.00354
;WIDTH:0.593051
G1 X37.591 Y163.252 E.00387
;WIDTH:0.636234
G1 X37.613 Y163.171 E.00414
G1 X37.591 Y163.089 E.00419
;WIDTH:0.593108
G1 X37.57 Y163.007 E.00387
;WIDTH:0.549982
G1 X37.548 Y162.925 E.00358
;WIDTH:0.532816
G1 X37.535 Y94.903 E2.77088
;WIDTH:0.574996
G1 X37.556 Y94.802 E.00456
;WIDTH:0.617176
G1 X37.577 Y94.7 E.00497
G1 X37.68 Y94.679 E.00502
;WIDTH:0.575029
G1 X37.782 Y94.658 E.00461
;WIDTH:0.5818
G1 X45.594 Y94.706 E.35005
M204 S1000
;WIPE_START
G1 F8640
G1 X45.197 Y94.697 E-.09169
G1 X42.129 Y94.681 E-.70831
;WIPE_END
G1 Z.6 F720
G1 X74.607 Y134.66 F10800
G1 Z.2 F720
G1 E.8 F2100
M204 S800
;WIDTH:0.321907
G1 F1200
G1 X74.357 Y134.268 E.01079
;WIDTH:0.324566
G1 X73.801 Y133.492 E.02236
;WIDTH:0.348322
G1 X71.953 Y130.932 E.08018
;WIDTH:0.373493
G1 X49.644 Y100.266 E1.04238
;WIDTH:0.401589
G1 X46.517 Y95.946 E.15905
;WIDTH:0.416697
G1 X45.853 Y95.021 E.03539
;WIDTH:0.452561
G1 X45.802 Y94.933 E.00346
;WIDTH:0.488424
G1 X45.75 Y94.845 E.00379
;WIDTH:0.524287
G1 X45.698 Y94.758 E.00406
;WIDTH:0.571392
G1 X45.594 Y94.706 E.00511
G1 X45.718 Y94.686 E.00552
;WIDTH:0.524287
G1 X45.842 Y94.689 E.00496
;WIDTH:0.489294
G1 X45.966 Y94.692 E.0046
;WIDTH:0.454301
G1 X46.091 Y94.695 E.00428
;WIDTH:0.419308
G1 X46.158 Y94.805 E.00403
;WIDTH:0.416697
G1 X46.808 Y95.737 E.03532
;WIDTH:0.401589
G1 X49.912 Y100.072 E.15901
;WIDTH:0.373485
G1 X72.2 Y130.753 E1.04235
;WIDTH:0.348322
G1 X74.03 Y133.328 E.08022
;WIDTH:0.324566
G1 X74.578 Y134.12 E.02255
;WIDTH:0.321907
G1 X74.921 Y134.692 E.01547
G1 X74.731 Y134.912 E.00674
;WIDTH:0.310617
G1 X74.044 Y135.614 E.02186
;WIDTH:0.326715
G1 X72.88 Y136.774 E.03878
;WIDTH:0.354279
G1 X66.675 Y142.828 E.22444
G1 X48.019 Y160.846 E.67148
;WIDTH:0.391821
M73 Q4 S33
G1 X47.963 Y160.87 E.00177
;WIDTH:0.43541
M73 P4 R33
G1 X47.906 Y160.894 E.00202
