; generated by PrusaSlicer 2.7.2+win64 on 2024-03-21 at 19:47:56 UTC


;
;
; 

; external perimeters extrusion width = 0.60mm
; perimeters extrusion width = 0.50mm
; infill extrusion width = 0.50mm
; solid infill extrusion width = 0.50mm
; top infill extrusion width = 0.45mm
; support material extrusion width = 0.38mm
; first layer extrusion width = 0.42mm

; external perimeters extrusion width = 0.60mm
; perimeters extrusion width = 0.50mm
; infill extrusion width = 0.50mm
; solid infill extrusion width = 0.50mm
; top infill extrusion width = 0.45mm
; support material extrusion width = 0.38mm
; first layer extrusion width = 0.42mm

M73 P0 R43
M73 Q0 S43
M201 X1000 Y1000 Z200 E5000 ; sets maximum accelerations, mm/sec^2
M203 X200 Y200 Z12 E120 ; sets maximum feedrates, mm / sec
M204 S1250 T1250 ; sets acceleration (S) and retract acceleration (R), mm/sec^2
M205 X8.00 Y8.00 Z0.40 E4.50 ; sets the jerk limits, mm/sec
M205 S0 T0 ; sets the minimum extruding and travel feed rate, mm/sec

; printing object drawing_and id:1 copy 0
; stop printing object drawing_and id:1 copy 0
; printing object drawing_and id:0 copy 0
; stop printing object drawing_and id:0 copy 0

;TYPE:Custom
M862.3 P "MK3" ; printer model check
M862.1 P0.4 ; nozzle diameter check
M115 U3.13.1 ; tell printer latest fw version
G90 ; use absolute coordinates
M83 ; extruder relative mode
M104 S215 ; set extruder temp
M140 S60 ; set bed temp
M190 S60 ; wait for bed temp
M109 S215 ; wait for extruder temp
G28 W ; home all without mesh bed level
G80 ; mesh bed leveling

G1 Z0.2 F720
G1 Y-3 F1000 ; go outside print area
G92 E0
G1 X60 E9 F1000 ; intro line
G1 X100 E12.5 F1000 ; intro line

G92 E0
M221 S95

; Don't change E values below. Excessive value can damage the printer.

M907 E538 ; set extruder motor current
G21 ; set units to millimeters
G90 ; use absolute coordinates
M83 ; use relative distances for extrusion
M900 K0.05 ; Filament gcode LA 1.5
M900 K30 ; Filament gcode LA 1.0

M107
;LAYER_CHANGE
;Z:0.2
;HEIGHT:0.2
G1 E-.8 F2100
G1 Z.6 F720
G1 X77.781 Y60.353 F10800
G1 Z.2 F720
G1 E.8 F2100
M204 S800
;TYPE:Skirt/Brim
;WIDTH:0.42
G1 F1200
G1 X78.136 Y60.023 E.0152
G1 X78.998 Y59.586 E.0303
G1 X79.738 Y59.481 E.02343
G1 X176.005 Y59.808 E3.0184
G1 X176.89 Y59.962 E.02817
G1 X177.605 Y60.322 E.0251
G1 X178.296 Y61.043 E.03131
G1 X178.651 Y61.903 E.02917
G1 X178.715 Y62.46 E.01758
G1 X178.62 Y147.993 E2.68183
G1 X178.463 Y148.866 E.02781
G1 X178.217 Y149.36 E.0173
G1 X177.896 Y149.765 E.0162
G1 X177.146 Y150.303 E.02894
G1 X176.751 Y150.454 E.01326
G1 X175.997 Y150.562 E.02388
G1 X79.489 Y150.562 E3.02594
G1 X78.506 Y150.375 E.03137
M73 P0 R42
G1 X77.753 Y149.919 E.0276
G1 X77.433 Y149.587 E.01446
G1 X77.109 Y149.071 E.0191
G1 X76.923 Y148.513 E.01844
G1 X76.866 Y147.99 E.0165
G1 X76.866 Y62.381 E2.68421
G1 X76.996 Y61.583 E.02535
M73 Q1 S43
G1 X77.226 Y61.08 E.01734
G1 X77.745 Y60.401 E.0268
M73 P1 R42
M204 S1000
; printing object drawing_and id:0 copy 0
;WIPE_START
G1 F8640
G1 X77.781 Y60.353 E-.01385
G1 X78.136 Y60.023 E-.11192
G1 X78.998 Y59.586 E-.22315
G1 X79.738 Y59.481 E-.17258
G1 X80.944 Y59.485 E-.2785
;WIPE_END
G1 Z.6 F720
G1 X148.174 Y99.703 F10800
G1 Z.2 F720
G1 E.8 F2100
M204 S800
;TYPE:External perimeter
;WIDTH:0.52591
G1 F1200
G1 X148.207 Y99.677 E.00169
;WIDTH:0.522278
G1 X175.679 Y79.941 E1.34828
;WIDTH:0.554975
G1 X175.769 Y79.904 E.00414
;WIDTH:0.587672
G1 X175.86 Y79.866 E.00447
;WIDTH:0.612642
G1 X175.968 Y79.893 E.00527
G1 X175.99 Y79.974 E.00398
;WIDTH:0.567114
G1 X176.013 Y80.055 E.00367
;WIDTH:0.521585
G1 X176.035 Y80.136 E.00334
;WIDTH:0.476056
G1 X175.96 Y100.07 E.71794
;WIDTH:0.519638
G1 X175.935 Y100.154 E.00347
;WIDTH:0.569476
G1 X175.909 Y100.238 E.00385
;WIDTH:0.619314
G1 X175.884 Y100.322 E.0042
G1 X175.815 Y100.322 E.00331
;WIDTH:0.583794
G1 X175.745 Y100.322 E.00315
;WIDTH:0.548296
G1 X148.377 Y100.222 E1.15007
M204 S1000
G1 X148.377 Y100.222 F10800
G1 X148.174 Y99.703
M204 S800
;WIDTH:0.52591
G1 F1200
G1 X148.157 Y99.812 E.00443
;WIDTH:0.496955
G1 X148.14 Y99.921 E.00416
;WIDTH:0.467999
G1 X148.175 Y100.003 E.00315
;WIDTH:0.498315
G1 X148.276 Y100.112 E.00563
;WIDTH:0.548296
G1 X148.377 Y100.222 E.00628
G1 X148.193 Y100.246 E.0078
;WIDTH:0.499431
G1 X148.009 Y100.27 E.00704
;WIDTH:0.450566
G1 X147.587 Y100.186 E.01458
;WIDTH:0.448333
G1 X147.835 Y99.925 E.01214
;WIDTH:0.487122
G1 X148.004 Y99.814 E.00747
;WIDTH:0.52591
G1 X148.124 Y99.736 E.00575
M204 S1000
;WIPE_START
G1 F8640
G1 X148.174 Y99.703 E-.01383
G1 X148.157 Y99.812 E-.02547
G1 X148.14 Y99.921 E-.02547
G1 X148.175 Y100.003 E-.02059
G1 X148.276 Y100.112 E-.03431
G1 X148.377 Y100.222 E-.03448
G1 X148.193 Y100.246 E-.04285
G1 X148.009 Y100.27 E-.04285
G1 X147.587 Y100.186 E-.09935
G1 X147.835 Y99.925 E-.08313
G1 X148.004 Y99.814 E-.04669
G1 X148.124 Y99.736 E-.03305
;WIPE_END
G1 E-.29793 F2100
G1 Z.6 F720
G1 X148.108 Y109.282 F10800
G1 Z.2 F720
G1 E.8 F2100
M204 S800
;WIDTH:0.545976
G1 F1200
G1 X148.151 Y109.28 E.0018
;WIDTH:0.54219
G1 X175.712 Y109.379 E1.14419
;WIDTH:0.570628
G1 X175.787 Y109.379 E.00329
M73 Q1 S42
;WIDTH:0.61243
G1 X175.861 Y109.38 E.0035
G1 X175.883 Y109.461 E.00397
;WIDTH:0.567021
G1 X175.906 Y109.542 E.00367
;WIDTH:0.521612
G1 X175.928 Y109.623 E.00334
;WIDTH:0.476202
G1 X175.858 Y128.978 E.69732
;WIDTH:0.522488
G1 X175.835 Y129.049 E.00298
;WIDTH:0.568782
G1 X175.811 Y129.119 E.00324
;WIDTH:0.615076
G1 X175.788 Y129.19 E.00355
;WIDTH:0.66137
G1 X175.764 Y129.261 E.00385
G1 X175.677 Y129.232 E.00472
;WIDTH:0.615624
G1 X175.59 Y129.203 E.00437
;WIDTH:0.569878
G1 X175.503 Y129.174 E.00402
;WIDTH:0.524156
G1 X147.981 Y109.825 E1.34622
M204 S1000
M204 S800
G1 X147.827 Y109.737 E.0071
;WIDTH:0.491068
G1 X147.673 Y109.649 E.00661
;WIDTH:0.45798
G1 X147.411 Y109.363 E.01339
;WIDTH:0.453799
G1 X147.511 Y109.34 E.00351
G1 X147.65 Y109.234 E.00597
;WIDTH:0.499888
G1 X147.879 Y109.258 E.00875
;WIDTH:0.545976
G1 X148.108 Y109.282 E.00963
G1 X148.028 Y109.374 E.0051
;WIDTH:0.50568
G1 X147.949 Y109.466 E.00467
;WIDTH:0.465383
G1 X147.929 Y109.548 E.00296
;WIDTH:0.489016
G1 X147.955 Y109.687 E.00525
;WIDTH:0.524156
G1 X147.97 Y109.767 E.00326
M204 S1000
;WIPE_START
G1 F8640
G1 X147.981 Y109.825 E-.01363
G1 X147.827 Y109.737 E-.04096
G1 X147.673 Y109.649 E-.04096
G1 X147.411 Y109.363 E-.08956
G1 X147.511 Y109.34 E-.02369
G1 X147.65 Y109.234 E-.04036
G1 X147.879 Y109.258 E-.05317
G1 X148.108 Y109.282 E-.05317
G1 X148.028 Y109.374 E-.02815
G1 X147.949 Y109.466 E-.028
G1 X147.929 Y109.548 E-.01949
G1 X147.955 Y109.687 E-.03265
G1 X147.97 Y109.767 E-.01879
;WIPE_END
G1 E-.31742 F2100
G1 Z.6 F720
G1 X106.871 Y139.331 F10800
G1 Z.2 F720
G1 E.8 F2100
M204 S800
;WIDTH:0.442316
G1 F1200
G1 X131.285 Y109.977 E1.26795
;WIDTH:0.468023
G1 X131.347 Y109.929 E.00277
;WIDTH:0.49373
G1 X131.408 Y109.882 E.00289
G1 X131.671 Y109.989 E.01064
;WIDTH:0.501732
G1 X175.811 Y139.357 E2.02262
;WIDTH:0.495112
G1 X175.82 Y139.448 E.00344
;WIDTH:0.476202
G1 X175.791 Y147.403 E.2866
;WIDTH:0.507941
G1 X175.765 Y147.496 E.00373
;WIDTH:0.539686
G1 X175.739 Y147.588 E.00395
G1 X175.656 Y147.604 E.00349
;WIDTH:0.508138
G1 X175.574 Y147.619 E.00322
;WIDTH:0.476598
G1 X106.684 Y147.368 E2.48422
;WIDTH:0.524652
G1 X106.627 Y147.369 E.00228
;WIDTH:0.572705
G1 X106.57 Y147.369 E.00251
;WIDTH:0.620759
G1 X106.513 Y147.37 E.00274
;WIDTH:0.668812
G1 X106.456 Y147.37 E.00297
M204 S1000
;WIPE_START
G1 F8640
G1 X106.513 Y147.37 E-.01316
G1 X106.57 Y147.369 E-.01316
G1 X106.627 Y147.369 E-.01316
G1 X106.684 Y147.368 E-.01316
G1 X109.921 Y147.38 E-.74736
;WIPE_END
G1 Z.6 F720
G1 X80.189 Y147.272 F10800
G1 Z.2 F720
G1 E.8 F2100
M204 S800
;WIDTH:0.47659
G1 F1200
G1 X106.226 Y147.367 E.9389
;WIDTH:0.524646
G1 X106.283 Y147.368 E.00228
;WIDTH:0.572701
G1 X106.341 Y147.369 E.00256
;WIDTH:0.620757
G1 X106.398 Y147.369 E.00274
;WIDTH:0.668812
G1 X106.456 Y147.37 E.00302
G1 X106.456 Y147.315 E.00286
;WIDTH:0.623749
G1 X106.456 Y147.26 E.00266
;WIDTH:0.578685
G1 X106.456 Y147.205 E.00245
;WIDTH:0.533622
G1 X106.457 Y147.15 E.00224
;WIDTH:0.488562
G1 X106.519 Y139.746 E.27437
M204 S1000
;WIPE_START
G1 F8640
G1 X106.49 Y143.21 E-.8
;WIPE_END
G1 Z.6 F720
G1 X80.106 Y104.629 F10800
G1 Z.2 F720
G1 E.8 F2100
M204 S800
;WIDTH:0.476378
G1 F1200
G1 X106.591 Y104.725 E.95458
;WIDTH:0.5154
G1 X106.657 Y104.734 E.00262
;WIDTH:0.554422
G1 X106.723 Y104.743 E.00283
;WIDTH:0.593444
G1 X106.789 Y104.752 E.00305
G1 X106.817 Y104.683 E.00341
;WIDTH:0.555383
G1 X106.846 Y104.615 E.00315
;WIDTH:0.517322
G1 X106.874 Y104.547 E.0029
;WIDTH:0.47926
G1 X106.876 Y104.51 E.00134
;WIDTH:0.476
G1 X106.962 Y80.641 E.85955
;WIDTH:0.525959
G1 X106.99 Y80.574 E.00292
;WIDTH:0.575918
G1 X107.017 Y80.508 E.00316
;WIDTH:0.625877
G1 X107.044 Y80.441 E.0035
;WIDTH:0.675836
G1 X107.071 Y80.375 E.00375
;WIDTH:0.725794
G1 X107.098 Y80.308 E.0041
G1 X107.137 Y80.32 E.00232
;WIDTH:0.681863
G1 X107.176 Y80.332 E.00217
;WIDTH:0.637931
G1 X107.215 Y80.344 E.00202
;WIDTH:0.594
G1 X107.255 Y80.356 E.00191
;WIDTH:0.550068
G1 X107.313 Y80.401 E.0031
;WIDTH:0.511712
G1 X107.371 Y80.445 E.00284
;WIDTH:0.473356
G1 X107.43 Y80.489 E.00263
;WIDTH:0.435
G1 X126.245 Y104.927 E1.00549
;WIDTH:0.445102
G1 X126.29 Y105.056 E.00457
M73 P2 R42
M73 Q2 S42
G1 X126.24 Y105.17 E.00416
;WIDTH:0.430918
G1 X107.081 Y128.643 E.97752
;WIDTH:0.473804
G1 X107.033 Y128.668 E.00194
;WIDTH:0.51669
G1 X106.985 Y128.694 E.00215
;WIDTH:0.559575
G1 X106.937 Y128.719 E.00233
;WIDTH:0.602461
G1 X106.888 Y128.744 E.00256
;WIDTH:0.645347
G1 X106.84 Y128.769 E.00271
;WIDTH:0.688233
G1 X106.792 Y128.794 E.0029
;WIDTH:0.731118
G1 X106.744 Y128.819 E.0031
G1 X106.72 Y128.78 E.00262
;WIDTH:0.68798
G1 X106.696 Y128.74 E.0025
;WIDTH:0.644842
G1 X106.672 Y128.701 E.00229
;WIDTH:0.601704
G1 X106.648 Y128.662 E.00213
;WIDTH:0.558566
G1 X106.631 Y128.573 E.00388
;WIDTH:0.523562
G1 X106.614 Y128.485 E.00358
;WIDTH:0.48856
G1 X106.813 Y104.944 E.87235
;WIDTH:0.523522
G1 X106.805 Y104.88 E.00258
;WIDTH:0.558483
G1 X106.797 Y104.816 E.00276
;WIDTH:0.593444
G1 X106.789 Y104.752 E.00295
M204 S1000
;WIPE_START
G1 F8640
G1 X106.797 Y104.816 E-.01489
G1 X106.805 Y104.88 E-.01489
G1 X106.813 Y104.944 E-.01489
G1 X106.785 Y108.215 E-.75533
;WIPE_END
G1 Z.6 F720
G1 X80.159 Y62.103 F10800
G1 Z.2 F720
G1 E.8 F2100
M204 S800
;WIDTH:0.485616
G1 F1200
G1 X106.813 Y62.201 E.98115
;WIDTH:0.518616
G1 X106.885 Y62.219 E.00294
;WIDTH:0.554114
G1 X106.957 Y62.237 E.00315
;WIDTH:0.589612
G1 X107.029 Y62.255 E.00337
G1 X107.102 Y62.237 E.00342
;WIDTH:0.5541
G1 X107.174 Y62.22 E.00314
;WIDTH:0.518587
G1 X107.246 Y62.202 E.00294
;WIDTH:0.483074
G1 X175.883 Y62.455 E2.51206
;WIDTH:0.5081
G1 X175.975 Y62.481 E.0037
;WIDTH:0.539574
G1 X176.068 Y62.507 E.00399
G1 X176.083 Y62.59 E.00348
;WIDTH:0.507886
G1 X176.099 Y62.673 E.00327
;WIDTH:0.476198
G1 X176.07 Y70.663 E.28786
;WIDTH:0.518701
G1 X176.048 Y70.732 E.00287
;WIDTH:0.561204
G1 X176.027 Y70.8 E.00307
;WIDTH:0.603707
G1 X176.005 Y70.869 E.00338
;WIDTH:0.64621
G1 X175.984 Y70.937 E.00357
G1 X175.898 Y70.965 E.00454
;WIDTH:0.596656
G1 X175.812 Y70.992 E.00415
;WIDTH:0.547101
G1 X175.726 Y71.019 E.00378
;WIDTH:0.501676
G1 X131.564 Y100.19 E2.01892
;WIDTH:0.507672
G1 X131.494 Y100.224 E.00301
G1 X131.4 Y100.186 E.00392
;WIDTH:0.474471
G1 X131.307 Y100.149 E.00359
;WIDTH:0.44127
G1 X131.284 Y100.123 E.00115
;WIDTH:0.438754
G1 X107.064 Y70.032 E1.27137
;WIDTH:0.475982
G1 X107.002 Y69.895 E.00541
G1 X107.029 Y62.422 E.2691
;WIDTH:0.513862
G1 X107.029 Y62.366 E.00219
;WIDTH:0.551737
G1 X107.029 Y62.31 E.00237
;WIDTH:0.589612
G1 X107.029 Y62.255 E.0025
M204 S1000
; stop printing object drawing_and id:0 copy 0
; printing object drawing_and id:1 copy 0
;WIPE_START
G1 F8640
G1 X107.029 Y62.31 E-.0127
G1 X107.029 Y62.366 E-.01293
G1 X107.029 Y62.422 E-.01293
G1 X107.017 Y65.719 E-.76144
;WIPE_END
G1 Z.6 F720
G1 X175.456 Y62.979 F10800
G1 Z.2 F720
G1 E.8 F2100
M204 S800
;TYPE:Perimeter
;WIDTH:0.419999
G1 F1200
G1 X175.456 Y105.184 E1.32331
G1 X175.456 Y147.386 E1.32321
G1 X80.03 Y147.386 E2.99201
G1 X80.03 Y62.985 E2.64633
G1 X175.396 Y62.979 E2.99013
M73 P3 R42
M73 Q3 S42
M204 S1000
G1 X175.396 Y62.979 F10800
M73 P3 R41
G1 X175.833 Y62.601
M204 S800
;TYPE:External perimeter
G1 F1200
G1 X175.833 Y105.184 E1.33516
G1 X175.833 Y147.763 E1.33503
G1 X79.653 Y147.763 E3.01565
G1 X79.653 Y62.608 E2.66997
M73 Q3 S41
G1 X175.773 Y62.601 E3.01377
M204 S1000
;WIPE_START
G1 F8640
G1 X175.833 Y62.601 E-.01385
G1 X175.833 Y66.006 E-.78615
;WIPE_END
G1 Z.6 F720
G1 X175.286 Y63.911 F10800
G1 Z.2 F720
G1 E.8 F2100
M73 Q4 S41
M204 S800
;TYPE:Solid infill
;WIDTH:0.420106
G1 F1200
G1 X174.693 Y63.318 E.0263
G1 X174.16 Y63.318 E.01672
G1 X175.117 Y64.274 E.04242
G1 X175.117 Y64.808 E.01675
G1 X173.627 Y63.318 E.06609
G1 X173.093 Y63.318 E.01675
G1 X175.117 Y65.341 E.08975
G1 X175.117 Y65.875 E.01675
M73 P4 R41
G1 X172.56 Y63.318 E.11341
G1 X172.027 Y63.318 E.01672
G1 X175.117 Y66.408 E.13705
G1 X175.117 Y66.942 E.01675
G1 X171.493 Y63.318 E.16074
G1 X170.96 Y63.318 E.01672
G1 X175.117 Y67.475 E.18438
G1 X175.117 Y68.008 E.01672
G1 X170.426 Y63.318 E.20804
G1 X169.893 Y63.318 E.01672
G1 X175.117 Y68.542 E.23171
G1 X175.117 Y69.075 E.01672
G1 X169.36 Y63.318 E.25535
G1 X168.826 Y63.318 E.01675
G1 X175.117 Y69.609 E.27903
G1 X175.117 Y70.142 E.01672
G1 X168.293 Y63.318 E.30267
G1 X167.759 Y63.318 E.01675
G1 X175.117 Y70.676 E.32636
G1 X175.117 Y71.209 E.01672
G1 X167.226 Y63.318 E.35
G1 X166.693 Y63.318 E.01672
G1 X175.117 Y71.742 E.37364
G1 X175.117 Y72.276 E.01675
G1 X166.159 Y63.318 E.39732
G1 X165.626 Y63.319 E.01672
G1 X175.117 Y72.809 E.42094
G1 X175.117 Y73.343 E.01675
G1 X165.093 Y63.319 E.44461
G1 X164.559 Y63.319 E.01675
G1 X175.117 Y73.876 E.46827
G1 X175.117 Y74.409 E.01672
G1 X164.026 Y63.319 E.49191
G1 X163.492 Y63.319 E.01675
G1 X175.117 Y74.943 E.5156
G1 X175.117 Y75.476 E.01672
G1 X162.959 Y63.319 E.53924
G1 X162.426 Y63.319 E.01672
G1 X175.117 Y76.01 E.5629
G1 X175.117 Y76.543 E.01672
G1 X161.892 Y63.319 E.58656
G1 X161.359 Y63.319 E.01672
G1 X175.117 Y77.077 E.61022
G1 X175.117 Y77.61 E.01672
G1 X160.825 Y63.319 E.63389
G1 X160.292 Y63.319 E.01672
G1 X175.117 Y78.143 E.65753
G1 X175.117 Y78.677 E.01675
G1 X159.759 Y63.319 E.68119
G1 X159.225 Y63.319 E.01675
G1 X175.117 Y79.21 E.70485
G1 X175.117 Y79.744 E.01675
G1 X158.692 Y63.319 E.72852
G1 X158.158 Y63.319 E.01675
G1 X175.117 Y80.277 E.75218
G1 X175.117 Y80.811 E.01675
G1 X157.625 Y63.319 E.77584
G1 X157.092 Y63.319 E.01672
G1 X175.117 Y81.344 E.79948
G1 X175.117 Y81.877 E.01672
G1 X156.558 Y63.319 E.82315
G1 X156.025 Y63.319 E.01672
G1 X175.117 Y82.411 E.84681
G1 X175.117 Y82.944 E.01672
M73 Q5 S41
G1 X155.492 Y63.319 E.87045
G1 X154.958 Y63.319 E.01675
M73 P5 R41
G1 X175.117 Y83.478 E.89414
G1 X175.117 Y84.011 E.01672
G1 X154.425 Y63.319 E.91778
G1 X153.891 Y63.319 E.01675
G1 X175.117 Y84.544 E.94144
G1 X175.117 Y85.078 E.01675
G1 X153.358 Y63.319 E.9651
G1 X152.825 Y63.319 E.01672
G1 X175.117 Y85.611 E.98874
G1 X175.117 Y86.145 E.01675
G1 X152.291 Y63.319 E1.01243
G1 X151.758 Y63.319 E.01672
M73 P5 R40
G1 X175.117 Y86.678 E1.03607
G1 X175.117 Y87.212 E.01675
G1 X151.224 Y63.319 E1.05975
G1 X150.691 Y63.319 E.01672
G1 X175.117 Y87.745 E1.0834
G1 X175.117 Y88.278 E.01672
G1 X150.158 Y63.32 E1.10701
G1 X149.624 Y63.32 E.01675
G1 X175.117 Y88.812 E1.1307
G1 X175.117 Y89.345 E.01672
G1 X149.091 Y63.32 E1.15434
G1 X148.558 Y63.32 E.01672
M73 Q5 S40
G1 X175.117 Y89.879 E1.178
G1 X175.117 Y90.412 E.01672
G1 X148.024 Y63.32 E1.20167
G1 X147.491 Y63.32 E.01672
G1 X175.117 Y90.946 E1.22533
G1 X175.117 Y91.479 E.01672
M73 P6 R40
M73 Q6 S40
G1 X146.957 Y63.32 E1.24899
G1 X146.424 Y63.32 E.01672
G1 X175.117 Y92.012 E1.27263
G1 X175.117 Y92.546 E.01675
G1 X145.891 Y63.32 E1.2963
G1 X145.357 Y63.32 E.01675
G1 X175.117 Y93.079 E1.31996
G1 X175.117 Y93.613 E.01675
G1 X144.824 Y63.32 E1.34362
G1 X144.29 Y63.32 E.01675
G1 X175.117 Y94.146 E1.36728
G1 X175.117 Y94.679 E.01672
G1 X143.757 Y63.32 E1.39093
G1 X143.224 Y63.32 E.01672
G1 X175.117 Y95.213 E1.41459
G1 X175.117 Y95.746 E.01672
G1 X142.69 Y63.32 E1.43825
