; generated by PrusaSlicer 2.6.1+win64 on 2024-03-14 at 17:10:30 UTC


;
;
; 

; external perimeters extrusion width = 0.60mm
; perimeters extrusion width = 0.50mm
; infill extrusion width = 0.50mm
; solid infill extrusion width = 0.50mm
; top infill extrusion width = 0.45mm
; first layer extrusion width = 0.42mm

; external perimeters extrusion width = 0.60mm
; perimeters extrusion width = 0.50mm
; infill extrusion width = 0.50mm
; solid infill extrusion width = 0.50mm
; top infill extrusion width = 0.45mm
; first layer extrusion width = 0.42mm

M73 P0 R43
M73 Q0 S43
M201 X1000 Y1000 Z200 E5000 ; sets maximum accelerations, mm/sec^2
M203 X200 Y200 Z12 E120 ; sets maximum feedrates, mm / sec
M204 S1250 T1250 ; sets acceleration (S) and retract acceleration (R), mm/sec^2
M205 X8.00 Y8.00 Z0.40 E4.50 ; sets the jerk limits, mm/sec
M205 S0 T0 ; sets the minimum extruding and travel feed rate, mm/sec
;TYPE:Custom
M862.3 P "MK3" ; printer model check
M862.1 P0.4 ; nozzle diameter check
M115 U3.13.1 ; tell printer latest fw version
G90 ; use absolute coordinates
M83 ; extruder relative mode
M104 S215 ; set extruder temp
M140 S60 ; set bed temp
M190 S60 ; wait for bed temp
M109 S215 ; wait for extruder temp
G28 W ; home all without mesh bed level
G80 ; mesh bed leveling

G1 Z0.2 F720
G1 Y-3 F1000 ; go outside print area
G92 E0
G1 X60 E9 F1000 ; intro line
G1 X100 E12.5 F1000 ; intro line

G92 E0
M221 S95

; Don't change E values below. Excessive value can damage the printer.

M907 E538 ; set extruder motor current
G21 ; set units to millimeters
G90 ; use absolute coordinates
M83 ; use relative distances for extrusion
M900 K0.05 ; Filament gcode LA 1.5
M900 K30 ; Filament gcode LA 1.0

M107
;LAYER_CHANGE
;Z:0.2
;HEIGHT:0.2
;BEFORE_LAYER_CHANGE
G92 E0.0
;0.2


G1 E-.8 F2100
G1 Z.4 F720
;AFTER_LAYER_CHANGE
;0.2
G1 X35.398 Y92.229 F10800
G1 Z.2 F720
G1 E.8 F2100
M204 S800
;TYPE:Skirt/Brim
;WIDTH:0.42
G1 F1200
G1 X36.338 Y92.035 E.03009
G1 X122.278 Y92.035 E2.69459
G1 X123.585 Y92.427 E.04278
M73 P0 R42
G1 X124.462 Y93.472 E.04277
G1 X124.655 Y94.412 E.03009
G1 X124.655 Y191.848 E3.05504
G1 X124.264 Y193.155 E.04277
G1 X123.218 Y194.031 E.04278
G1 X122.278 Y194.225 E.03009
G1 X36.338 Y194.225 E2.69459
G1 X35.031 Y193.834 E.04277
M73 Q0 S42
G1 X34.155 Y192.788 E.04278
G1 X33.961 Y191.848 E.03009
G1 X33.961 Y94.412 E3.05504
G1 X34.353 Y93.105 E.04278
M73 P1 R42
M73 Q1 S42
G1 X35.352 Y92.267 E.04088
M204 S1000
; printing object Fantastic Turing-Hillar (2).stl_2 id:0 copy 0
;WIPE_START
G1 F8640
G1 X36.338 Y92.035 E-.23389
G1 X38.79 Y92.035 E-.56611
;WIPE_END
G1 Z.6 F720
G1 X121.491 Y191.061 F10800
G1 Z.2 F720
G1 E.8 F2100
M204 S800
;TYPE:Perimeter
;WIDTH:0.419999
G1 F1200
G1 X37.125 Y191.061 E2.64523
G1 X37.125 Y95.199 E3.00568
G1 X121.491 Y95.199 E2.64523
G1 X121.491 Y191.001 E3.0038
M204 S1000
G1 X121.868 Y191.438 F10800
M204 S800
;TYPE:External perimeter
G1 F1200
G1 X36.748 Y191.438 E2.66887
G1 X36.748 Y94.822 E3.02932
G1 X121.868 Y94.822 E2.66887
M73 P2 R42
M73 Q2 S42
G1 X121.868 Y191.378 E3.02744
M204 S1000
G1 X121.484 Y191.326 F10800
;WIPE_START
G1 F8640
G1 X118.403 Y191.38 E-.8
;WIPE_END
G1 Z.6 F720
G1 X120.557 Y95.369 F10800
G1 Z.2 F720
G1 E.8 F2100
M204 S800
;TYPE:Solid infill
;WIDTH:0.420936
G1 F1200
G1 X121.152 Y95.963 E.02643
G1 X121.152 Y96.498 E.01682
G1 X120.192 Y95.538 E.04267
G1 X119.658 Y95.538 E.01678
G1 X121.152 Y97.033 E.06643
G1 X121.152 Y97.567 E.01678
G1 X119.123 Y95.538 E.09019
G1 X118.588 Y95.538 E.01682
G1 X121.152 Y98.102 E.11397
G1 X121.152 Y98.636 E.01678
G1 X118.054 Y95.538 E.13771
G1 X117.519 Y95.538 E.01682
G1 X121.152 Y99.171 E.16149
G1 X121.152 Y99.706 E.01682
G1 X116.985 Y95.538 E.18525
G1 X116.45 Y95.538 E.01682
G1 X121.152 Y100.24 E.20901
G1 X121.152 Y100.775 E.01682
G1 X115.915 Y95.538 E.23279
G1 X115.381 Y95.538 E.01678
G1 X121.152 Y101.309 E.25653
G1 X121.152 Y101.844 E.01682
G1 X114.846 Y95.538 E.28031
G1 X114.312 Y95.538 E.01678
M73 P2 R41
G1 X121.152 Y102.379 E.30407
G1 X121.152 Y102.913 E.01678
G1 X113.777 Y95.538 E.32783
G1 X113.242 Y95.538 E.01682
G1 X121.152 Y103.448 E.35161
G1 X121.152 Y103.982 E.01678
G1 X112.708 Y95.538 E.37535
G1 X112.173 Y95.538 E.01682
G1 X121.152 Y104.517 E.39913
G1 X121.152 Y105.051 E.01678
G1 X111.639 Y95.538 E.42287
G1 X111.104 Y95.538 E.01682
G1 X121.152 Y105.586 E.44665
G1 X121.152 Y106.121 E.01682
G1 X110.569 Y95.538 E.47043
G1 X110.035 Y95.538 E.01678
G1 X121.152 Y106.655 E.49417
G1 X121.152 Y107.19 E.01682
G1 X109.5 Y95.538 E.51795
G1 X108.966 Y95.538 E.01678
G1 X121.152 Y107.724 E.54169
G1 X121.152 Y108.259 E.01682
G1 X108.431 Y95.538 E.56547
G1 X107.896 Y95.538 E.01682
M73 Q2 S41
G1 X121.152 Y108.794 E.58925
G1 X121.152 Y109.328 E.01678
M73 P3 R41
M73 Q3 S41
G1 X107.362 Y95.538 E.61299
G1 X106.827 Y95.538 E.01682
G1 X121.152 Y109.863 E.63677
G1 X121.152 Y110.397 E.01678
G1 X106.293 Y95.538 E.66051
G1 X105.758 Y95.538 E.01682
G1 X121.152 Y110.932 E.68429
G1 X121.152 Y111.467 E.01682
G1 X105.223 Y95.538 E.70807
G1 X104.689 Y95.538 E.01678
G1 X121.152 Y112.001 E.73181
G1 X121.152 Y112.536 E.01682
G1 X104.154 Y95.538 E.75559
G1 X103.62 Y95.538 E.01678
G1 X121.152 Y113.07 E.77933
G1 X121.152 Y113.605 E.01682
G1 X103.085 Y95.538 E.80311
G1 X102.551 Y95.538 E.01678
G1 X121.152 Y114.14 E.82687
G1 X121.152 Y114.674 E.01678
G1 X102.016 Y95.538 E.85063
G1 X101.481 Y95.538 E.01682
G1 X121.152 Y115.209 E.87441
G1 X121.152 Y115.743 E.01678
G1 X100.947 Y95.538 E.89815
G1 X100.412 Y95.538 E.01682
G1 X121.152 Y116.278 E.92193
G1 X121.152 Y116.813 E.01682
G1 X99.878 Y95.538 E.94569
G1 X99.343 Y95.538 E.01682
G1 X121.152 Y117.347 E.96945
G1 X121.152 Y117.882 E.01682
G1 X98.808 Y95.538 E.99323
G1 X98.274 Y95.538 E.01678
G1 X121.152 Y118.416 E1.01697
G1 X121.152 Y118.951 E.01682
G1 X97.739 Y95.538 E1.04075
G1 X97.205 Y95.538 E.01678
M73 P4 R41
M73 Q4 S41
G1 X121.152 Y119.486 E1.06451
G1 X121.152 Y120.02 E.01678
G1 X96.67 Y95.538 E1.08827
G1 X96.135 Y95.538 E.01682
G1 X121.152 Y120.555 E1.11205
G1 X121.152 Y121.089 E.01678
G1 X95.601 Y95.538 E1.13579
G1 X95.066 Y95.538 E.01682
G1 X121.152 Y121.624 E1.15957
G1 X121.152 Y122.159 E.01682
G1 X94.532 Y95.538 E1.18333
G1 X93.997 Y95.538 E.01682
G1 X121.152 Y122.693 E1.20709
G1 X121.152 Y123.228 E.01682
G1 X93.462 Y95.538 E1.23087
G1 X92.928 Y95.538 E.01678
G1 X121.152 Y123.762 E1.25461
G1 X121.152 Y124.297 E.01682
G1 X92.393 Y95.538 E1.27839
G1 X91.859 Y95.538 E.01678
G1 X121.152 Y124.832 E1.30215
G1 X121.152 Y125.366 E.01678
G1 X91.324 Y95.538 E1.32591
G1 X90.789 Y95.538 E.01682
G1 X121.152 Y125.901 E1.34969
G1 X121.152 Y126.435 E.01678
M73 P4 R40
M73 Q5 S41
G1 X90.255 Y95.538 E1.37343
G1 X89.72 Y95.538 E.01682
M73 P5 R40
G1 X121.152 Y126.97 E1.39721
G1 X121.152 Y127.504 E.01678
G1 X89.186 Y95.538 E1.42095
G1 X88.651 Y95.538 E.01682
G1 X121.152 Y128.039 E1.44473
G1 X121.152 Y128.574 E.01682
M73 Q5 S40
G1 X88.116 Y95.538 E1.46851
G1 X87.582 Y95.538 E.01678
G1 X121.152 Y129.108 E1.49225
G1 X121.152 Y129.643 E.01682
G1 X87.047 Y95.538 E1.51603
G1 X86.513 Y95.538 E.01678
G1 X121.152 Y130.177 E1.53977
G1 X121.152 Y130.712 E.01682
G1 X85.978 Y95.538 E1.56355
G1 X85.443 Y95.538 E.01682
G1 X121.152 Y131.247 E1.58733
G1 X121.152 Y131.781 E.01678
G1 X84.909 Y95.538 E1.61107
G1 X84.374 Y95.538 E.01682
M73 P6 R40
M73 Q6 S40
G1 X121.152 Y132.316 E1.63485
G1 X121.152 Y132.85 E.01678
G1 X83.84 Y95.538 E1.65859
G1 X83.305 Y95.538 E.01682
G1 X121.152 Y133.385 E1.68237
G1 X121.152 Y133.92 E.01682
G1 X82.77 Y95.538 E1.70615
G1 X82.236 Y95.538 E.01678
G1 X121.152 Y134.454 E1.72989
G1 X121.152 Y134.989 E.01682
G1 X81.701 Y95.538 E1.75367
G1 X81.167 Y95.538 E.01678
G1 X121.152 Y135.523 E1.7774
G1 X121.152 Y136.058 E.01682
G1 X80.632 Y95.538 E1.80119
G1 X80.098 Y95.538 E.01678
G1 X121.152 Y136.593 E1.82495
G1 X121.152 Y137.127 E.01678
G1 X79.563 Y95.538 E1.84871
G1 X79.028 Y95.538 E.01682
M73 P7 R40
M73 Q7 S40
G1 X121.152 Y137.662 E1.87249
G1 X121.152 Y138.196 E.01678
G1 X78.494 Y95.538 E1.89622
G1 X77.959 Y95.538 E.01682
M73 P7 R39
G1 X121.152 Y138.731 E1.92001
G1 X121.152 Y139.266 E.01682
G1 X77.425 Y95.538 E1.94377
G1 X76.89 Y95.538 E.01682
G1 X121.152 Y139.8 E1.96752
G1 X121.152 Y140.335 E.01682
M73 Q7 S39
G1 X76.355 Y95.538 E1.99131
G1 X75.821 Y95.538 E.01678
G1 X121.152 Y140.869 E2.01504
G1 X121.152 Y141.404 E.01682
G1 X75.286 Y95.538 E2.03883
G1 X74.752 Y95.538 E.01678
M73 P8 R39
M73 Q8 S39
G1 X121.152 Y141.939 E2.06259
G1 X121.152 Y142.473 E.01678
G1 X74.217 Y95.538 E2.08634
G1 X73.682 Y95.538 E.01682
G1 X121.152 Y143.008 E2.11013
G1 X121.152 Y143.542 E.01678
G1 X73.148 Y95.538 E2.13386
G1 X72.613 Y95.538 E.01682
G1 X121.152 Y144.077 E2.15765
G1 X121.152 Y144.612 E.01682
G1 X72.079 Y95.538 E2.1814
G1 X71.544 Y95.538 E.01682
G1 X121.152 Y145.146 E2.20516
G1 X121.152 Y145.681 E.01682
M73 P9 R39
M73 Q9 S39
G1 X71.009 Y95.538 E2.22895
G1 X70.475 Y95.538 E.01678
G1 X121.152 Y146.215 E2.25268
G1 X121.152 Y146.75 E.01682
G1 X69.94 Y95.538 E2.27646
G1 X69.406 Y95.538 E.01678
G1 X121.152 Y147.285 E2.30022
G1 X121.152 Y147.819 E.01678
G1 X68.871 Y95.538 E2.32398
G1 X68.336 Y95.538 E.01682
M73 P9 R38
G1 X121.152 Y148.354 E2.34777
G1 X121.152 Y148.888 E.01678
G1 X67.802 Y95.538 E2.3715
G1 X67.267 Y95.538 E.01682
M73 P10 R38
M73 Q10 S38
G1 X121.152 Y149.423 E2.39528
G1 X121.152 Y149.957 E.01678
G1 X66.733 Y95.538 E2.41902
G1 X66.198 Y95.538 E.01682
G1 X121.152 Y150.492 E2.4428
G1 X121.152 Y151.027 E.01682
G1 X65.663 Y95.538 E2.46659
G1 X65.129 Y95.538 E.01678
G1 X121.152 Y151.561 E2.49032
G1 X121.152 Y152.096 E.01682
G1 X64.594 Y95.538 E2.5141
G1 X64.06 Y95.538 E.01678
G1 X121.152 Y152.63 E2.53784
G1 X121.152 Y153.165 E.01682
M73 P11 R38
M73 Q11 S38
G1 X63.525 Y95.538 E2.56162
G1 X62.99 Y95.538 E.01682
G1 X121.152 Y153.7 E2.5854
G1 X121.152 Y154.234 E.01678
G1 X62.456 Y95.538 E2.60914
G1 X61.921 Y95.538 E.01682
G1 X121.152 Y154.769 E2.63292
G1 X121.152 Y155.303 E.01678
G1 X61.387 Y95.538 E2.65666
G1 X60.852 Y95.538 E.01682
G1 X121.152 Y155.838 E2.68044
G1 X121.152 Y156.373 E.01682
M73 P12 R37
M73 Q12 S38
G1 X60.317 Y95.538 E2.70422
G1 X59.783 Y95.538 E.01678
G1 X121.152 Y156.907 E2.72796
G1 X121.152 Y157.442 E.01682
M73 Q12 S37
G1 X59.248 Y95.538 E2.75174
G1 X58.714 Y95.538 E.01678
G1 X121.152 Y157.976 E2.77548
G1 X121.152 Y158.511 E.01682
G1 X58.179 Y95.538 E2.79926
G1 X57.644 Y95.538 E.01682
G1 X121.152 Y159.046 E2.82304
G1 X121.152 Y159.58 E.01678
M73 P13 R37
M73 Q13 S37
G1 X57.11 Y95.538 E2.84678
G1 X56.575 Y95.538 E.01682
G1 X121.152 Y160.115 E2.87056
G1 X121.152 Y160.649 E.01678
G1 X56.041 Y95.538 E2.8943
G1 X55.506 Y95.538 E.01682
G1 X121.152 Y161.184 E2.91808
G1 X121.152 Y161.719 E.01682
G1 X54.972 Y95.538 E2.94184
G1 X54.437 Y95.538 E.01682
G1 X121.152 Y162.253 E2.9656
G1 X121.152 Y162.788 E.01682
M73 P14 R37
M73 Q14 S37
G1 X53.902 Y95.538 E2.98938
G1 X53.368 Y95.538 E.01678
M73 P14 R36
G1 X121.152 Y163.322 E3.01312
G1 X121.152 Y163.857 E.01682
G1 X52.833 Y95.538 E3.0369
G1 X52.299 Y95.538 E.01678
M73 Q14 S36
G1 X121.152 Y164.392 E3.06066
G1 X121.152 Y164.926 E.01678
G1 X51.764 Y95.538 E3.08442
G1 X51.229 Y95.538 E.01682
M73 P15 R36
M73 Q15 S36
G1 X121.152 Y165.461 E3.1082
G1 X121.152 Y165.995 E.01678
G1 X50.695 Y95.538 E3.13194
G1 X50.16 Y95.538 E.01682
G1 X121.152 Y166.53 E3.15572
G1 X121.152 Y167.065 E.01682
G1 X49.626 Y95.538 E3.17948
G1 X49.091 Y95.538 E.01682
G1 X121.152 Y167.599 E3.20324
G1 X121.152 Y168.134 E.01682
M73 P16 R36
M73 Q16 S36
G1 X48.556 Y95.538 E3.22702
G1 X48.022 Y95.538 E.01678
G1 X121.152 Y168.668 E3.25076
G1 X121.152 Y169.203 E.01682
G1 X47.487 Y95.538 E3.27454
G1 X46.953 Y95.538 E.01678
M73 P16 R35
G1 X121.152 Y169.738 E3.2983
G1 X121.152 Y170.272 E.01678
M73 Q16 S35
G1 X46.418 Y95.538 E3.32206
G1 X45.883 Y95.538 E.01682
M73 P17 R35
M73 Q17 S35
G1 X121.152 Y170.807 E3.34584
G1 X121.152 Y171.341 E.01678
G1 X45.349 Y95.538 E3.36958
G1 X44.814 Y95.538 E.01682
G1 X121.152 Y171.876 E3.39336
G1 X121.152 Y172.41 E.01678
G1 X44.28 Y95.538 E3.4171
G1 X43.745 Y95.538 E.01682
G1 X121.152 Y172.945 E3.44088
G1 X121.152 Y173.48 E.01682
M73 P18 R35
M73 Q18 S35
G1 X43.21 Y95.538 E3.46466
G1 X42.676 Y95.538 E.01678
G1 X121.152 Y174.014 E3.4884
G1 X121.152 Y174.549 E.01682
G1 X42.141 Y95.538 E3.51218
G1 X41.607 Y95.538 E.01678
G1 X121.152 Y175.083 E3.53592
G1 X121.152 Y175.618 E.01682
M73 P19 R34
G1 X41.072 Y95.538 E3.5597
G1 X40.537 Y95.538 E.01682
M73 Q19 S34
G1 X121.152 Y176.153 E3.58348
G1 X121.152 Y176.687 E.01678
G1 X40.003 Y95.538 E3.60722
G1 X39.468 Y95.538 E.01682
G1 X121.152 Y177.222 E3.631
G1 X121.152 Y177.756 E.01678
G1 X38.934 Y95.538 E3.65474
G1 X38.399 Y95.538 E.01682
M73 P20 R34
M73 Q20 S34
G1 X121.152 Y178.291 E3.67852
G1 X121.152 Y178.826 E.01682
G1 X37.864 Y95.538 E3.7023
G1 X37.465 Y95.538 E.01254
G1 X37.465 Y95.673 E.00424
G1 X121.152 Y179.36 E3.72004
G1 X121.152 Y179.895 E.01682
G1 X37.465 Y96.208 E3.72004
G1 X37.465 Y96.742 E.01678
M73 P21 R34
M73 Q21 S34
G1 X121.152 Y180.429 E3.72004
G1 X121.152 Y180.964 E.01682
M73 P21 R33
G1 X37.465 Y97.277 E3.72004
G1 X37.465 Y97.812 E.01682
G1 X121.152 Y181.499 E3.72004
G1 X121.152 Y182.033 E.01678
M73 Q21 S33
G1 X37.465 Y98.346 E3.72004
G1 X37.465 Y98.881 E.01682
G1 X121.152 Y182.568 E3.72004
G1 X121.152 Y183.102 E.01678
M73 P22 R33
M73 Q22 S33
G1 X37.465 Y99.415 E3.72004
G1 X37.465 Y99.95 E.01682
G1 X121.152 Y183.637 E3.72004
G1 X121.152 Y184.172 E.01682
G1 X37.465 Y100.484 E3.72006
G1 X37.465 Y101.019 E.01682
G1 X121.152 Y184.706 E3.72004
G1 X121.152 Y185.241 E.01682
M73 P23 R33
M73 Q23 S33
G1 X37.465 Y101.554 E3.72004
G1 X37.465 Y102.088 E.01678
G1 X121.152 Y185.775 E3.72004
G1 X121.152 Y186.31 E.01682
M73 P23 R32
G1 X37.465 Y102.623 E3.72004
G1 X37.465 Y103.157 E.01678
G1 X121.152 Y186.845 E3.72006
G1 X121.152 Y187.379 E.01678
M73 P24 R32
M73 Q23 S32
G1 X37.465 Y103.692 E3.72004
G1 X37.465 Y104.227 E.01682
M73 Q24 S32
G1 X121.152 Y187.914 E3.72004
G1 X121.152 Y188.448 E.01678
G1 X37.465 Y104.761 E3.72004
G1 X37.465 Y105.296 E.01682
G1 X121.152 Y188.983 E3.72004
G1 X121.152 Y189.518 E.01682
G1 X37.465 Y105.83 E3.72006
G1 X37.465 Y106.365 E.01682
M73 P25 R32
M73 Q25 S32
G1 X121.152 Y190.052 E3.72004
G1 X121.152 Y190.587 E.01682
G1 X37.465 Y106.9 E3.72004
G1 X37.465 Y107.434 E.01678
G1 X120.752 Y190.722 E3.70228
G1 X120.217 Y190.722 E.01682
M73 P25 R31
G1 X37.465 Y107.969 E3.6785
G1 X37.465 Y108.503 E.01678
M73 P26 R31
M73 Q26 S32
G1 X119.683 Y190.722 E3.65476
G1 X119.148 Y190.722 E.01682
M73 Q26 S31
G1 X37.465 Y109.038 E3.63098
G1 X37.465 Y109.573 E.01682
G1 X118.614 Y190.722 E3.60722
G1 X118.079 Y190.722 E.01682
G1 X37.465 Y110.107 E3.58346
G1 X37.465 Y110.642 E.01682
M73 P27 R31
G1 X117.544 Y190.722 E3.55968
G1 X117.01 Y190.722 E.01678
M73 Q27 S31
G1 X37.465 Y111.176 E3.53594
G1 X37.465 Y111.711 E.01682
G1 X116.475 Y190.722 E3.51216
G1 X115.941 Y190.722 E.01678
G1 X37.465 Y112.246 E3.4884
G1 X37.465 Y112.78 E.01678
G1 X115.406 Y190.722 E3.46464
G1 X114.871 Y190.722 E.01682
M73 P28 R31
M73 Q28 S31
G1 X37.465 Y113.315 E3.44086
G1 X37.465 Y113.849 E.01678
M73 P28 R30
G1 X114.337 Y190.722 E3.41712
G1 X113.802 Y190.722 E.01682
M73 Q28 S30
G1 X37.465 Y114.384 E3.39334
G1 X37.465 Y114.919 E.01682
G1 X113.268 Y190.722 E3.36958
G1 X112.733 Y190.722 E.01682
G1 X37.465 Y115.453 E3.34582
G1 X37.465 Y115.988 E.01682
M73 P29 R30
M73 Q29 S30
G1 X112.198 Y190.722 E3.32204
G1 X111.664 Y190.722 E.01678
G1 X37.465 Y116.522 E3.2983
G1 X37.465 Y117.057 E.01682
G1 X111.129 Y190.722 E3.27452
G1 X110.595 Y190.722 E.01678
G1 X37.465 Y117.592 E3.25076
G1 X37.465 Y118.126 E.01678
G1 X110.06 Y190.722 E3.227
G1 X109.525 Y190.722 E.01682
M73 P30 R30
M73 Q30 S30
G1 X37.465 Y118.661 E3.20322
G1 X37.465 Y119.195 E.01678
G1 X108.991 Y190.722 E3.17948
G1 X108.456 Y190.722 E.01682
M73 P30 R29
G1 X37.465 Y119.73 E3.1557
G1 X37.465 Y120.265 E.01682
G1 X107.922 Y190.722 E3.13194
G1 X107.387 Y190.722 E.01682
M73 Q30 S29
G1 X37.465 Y120.799 E3.10818
G1 X37.465 Y121.334 E.01682
M73 P31 R29
M73 Q31 S29
G1 X106.852 Y190.722 E3.0844
G1 X106.318 Y190.722 E.01678
G1 X37.465 Y121.868 E3.06066
G1 X37.465 Y122.403 E.01682
G1 X105.783 Y190.722 E3.03688
G1 X105.249 Y190.722 E.01678
